images_sukapura_svg/cmd/sc_distributecolumns.svg

<svg viewBox="0 0 16 16" xmlns="http://www.w3.org/2000/svg" xmlns:xlink="http://www.w3.org/1999/xlink"><linearGradient id="a" gradientTransform="matrix(0 1 -1 0 14.99997 1.999969)" gradientUnits="userSpaceOnUse" x1="12.000031" x2="5.000031" y1=".999969" y2=".999969"><stop offset="0" stop-color="#0040dd"/><stop offset="1" stop-color="#0a84ff"/></linearGradient>



     /&amp;gt;
 <path d="m1 2v12h5v-12zm6 0v9.496094 2.503906h3.875.125v-.125-.878906-3.0000002-.8789063-3.0351563-4.0820312z" fill="#fff"/><path d="m0 1v4 9.5c-.00038442.276301.22369855.500384.5.5h5.5v-.998047h-5.00195312v-9.001953h.00195312v-1-2h4v2 1 4 1 4h1v-4-1-4-4zm7 0v1h.5 3.5v2 1 1.0820312 2.9179688.1171875.8789063.0039062 2.996094.878906.125h-1.5v.001953h-2.5v.998047h2.5.605469.894531 1v-9-1-4zm4.498047 4.9882812c.021591.0000815.041069.0105879.0625.0117188h-.125c.021669-.0010623.040532-.0118037.0625-.0117188z" fill="#69696e"/><path d="m1 4v1h4v-1zm6 0v1h4v-1zm-6 5v1h4v-1zm6 0v1h4v-1z" fill="#c0c0c0"/><path d="m11.667969 6.0097656c-.33346-.038954-.669807.0184575-.921875.1660156-.504138.2951148-.8465283.8488012-.7597659 1.5175782l-.0097656-.1308594v.4140625h-1.4765625c-.9648611.0000118-1.5234375.8654368-1.5234375 1.6503906v.8749999.871094c0 .784956.558543 1.650403 1.5234375 1.650391h1.4765625v.382812l.0214844-.207031c-.1428533.692646.2020931 1.294639.7148441 1.609375.342423.210186.844618.232962 1.287109.085937v-8.7949216c-.109591-.0359806-.218156-.0765412-.332031-.0898438z" fill="#fff" fill-opacity=".784314"/><path d="m14.999969 10.484345c-.0025-.155822-.07769-.302014-.203125-.394532l-2.949218-2.9433591c-.380073-.3792086-.900869.00585-.847657.4160156v1.4375l-2.499969.0000305c-.277.0000034-.4999995.2795294-.4999995.6269531v.8749999.871093c0 .347424.2230005.626958.4999995.626954l2.499969-.00003v1.406249c-.08755.4245.462775.844351.84961.439453l2.955078-2.957031c.125237-.09621.197771-.246412.195312-.404296z" fill="url(#a)"/></svg>

<?xml version="1.0" encoding="UTF-8" standalone="no"?>
<svg
   xmlns:dc="http://purl.org/dc/elements/1.1/"
   xmlns:cc="http://creativecommons.org/ns#"
   xmlns:rdf="http://www.w3.org/1999/02/22-rdf-syntax-ns#"
   xmlns:svg="http://www.w3.org/2000/svg"
   xmlns="http://www.w3.org/2000/svg"
   xmlns:xlink="http://www.w3.org/1999/xlink"
   xmlns:sodipodi="http://sodipodi.sourceforge.net/DTD/sodipodi-0.dtd"
   xmlns:inkscape="http://www.inkscape.org/namespaces/inkscape"
   viewBox="0 0 16 16"
   version="1.1"
   id="svg10"
   sodipodi:docname="sc_distributecolumns.svg"
   inkscape:version="0.92.3 (unknown)"
   inkscape:export-filename="/home/rizmut/Dokumen/Rizmut/Github/libreoffice-style-sukapura/images_sukapura/cmd/sc_setoptimalcolumnwidth.png"
   inkscape:export-xdpi="96"
   inkscape:export-ydpi="96"><metadata
   id="metadata16">
  <rdf:RDF>
    <cc:Work
       rdf:about="">
      <dc:format>image/svg+xml</dc:format>
      <dc:type
         rdf:resource="http://purl.org/dc/dcmitype/StillImage" />
      <dc:title></dc:title>
    </cc:Work>
  </rdf:RDF>
</metadata>
<defs
   id="defs14">
  <linearGradient
     gradientTransform="translate(75,-7)"
     id="a-367"
     gradientUnits="userSpaceOnUse"
     x1="14"
     x2="13.79661"
     y1="22"
     y2="2.1355929">
    <stop
       offset="0"
       stop-color="#0040dd"
       id="stop2206" />
    <stop
       offset="1"
       stop-color="#0a84ff"
       id="stop2208" />
  </linearGradient>
  <linearGradient
     inkscape:collect="always"
     xlink:href="#a-367"
     id="linearGradient2182"
     x1="12.000031"
     y1="0.99996948"
     x2="5.0000305"
     y2="0.99996948"
     gradientUnits="userSpaceOnUse"
     gradientTransform="rotate(90,6.5,8.4999695)" />
</defs>
<sodipodi:namedview
   pagecolor="#ffffff"
   bordercolor="#666666"
   borderopacity="1"
   objecttolerance="10"
   gridtolerance="10"
   guidetolerance="10"
   inkscape:pageopacity="0"
   inkscape:pageshadow="2"
   inkscape:window-width="1366"
   inkscape:window-height="706"
   id="namedview12"
   showgrid="true"
   inkscape:zoom="14.75"
   inkscape:cx="15.49118"
   inkscape:cy="2.6981013"
   inkscape:window-x="0"
   inkscape:window-y="0"
   inkscape:window-maximized="1"
   inkscape:current-layer="svg10"
   inkscape:snap-smooth-nodes="true"
   inkscape:snap-global="true">
  <inkscape:grid
     type="xygrid"
     id="grid823"
     spacingx="0.5"
     spacingy="0.5"
     empspacing="2" />
</sodipodi:namedview>



     /&gt;
 <path
   style="fill:#ffffff"
   d="M 1,2 V 14 H 6 V 2 Z M 7,2 V 11.496094 14 H 10.875 11 V 13.875 12.996094 9.9960938 9.1171875 6.0820312 2 Z"
   id="path2-3"
   inkscape:connector-curvature="0"
   sodipodi:nodetypes="ccccccccccccccccc" />
<path
   style="fill:#69696e;fill-opacity:1"
   d="M 0 1 L 0 5 L 0 14.5 C -0.00038442 14.776301 0.22369855 15.000384 0.5 15 L 6 15 L 6 14.001953 L 0.99804688 14.001953 L 0.99804688 5 L 1 5 L 1 4 L 1 2 L 5 2 L 5 4 L 5 5 L 5 9 L 5 10 L 5 14 L 6 14 L 6 10 L 6 9 L 6 5 L 6 1 L 0 1 z M 7 1 L 7 2 L 7.5 2 L 11 2 L 11 4 L 11 5 L 11 6.0820312 L 11 9 L 11 9.1171875 L 11 9.9960938 L 11 10 L 11 12.996094 L 11 13.875 L 11 14 L 9.5 14 L 9.5 14.001953 L 7 14.001953 L 7 15 L 9.5 15 L 10.105469 15 L 11 15 L 12 15 L 12 6 L 12 5 L 12 1 L 7 1 z M 11.498047 5.9882812 C 11.519638 5.9883627 11.539116 5.9988691 11.560547 6 L 11.435547 6 C 11.457216 5.9989377 11.476079 5.9881963 11.498047 5.9882812 z "
   id="path4-6" />
<path
   style="fill:#c0c0c0;fill-opacity:1;stroke:none"
   d="M 1 4 L 1 5 L 5 5 L 5 4 L 1 4 z M 7 4 L 7 5 L 11 5 L 11 4 L 7 4 z M 1 9 L 1 10 L 5 10 L 5 9 L 1 9 z M 7 9 L 7 10 L 11 10 L 11 9 L 7 9 z "
   id="rect860" />
<path
   style="fill:#ffffff;fill-opacity:0.78431374"
   d="M 11.667969 6.0097656 C 11.334509 5.9708116 10.998162 6.0282231 10.746094 6.1757812 C 10.241956 6.470896 9.8995657 7.0245824 9.9863281 7.6933594 L 9.9765625 7.5625 L 9.9765625 7.9765625 L 8.5 7.9765625 C 7.5351389 7.9765743 6.9765625 8.8419993 6.9765625 9.6269531 L 6.9765625 10.501953 L 6.9765625 11.373047 C 6.9765625 12.158003 7.5351055 13.02345 8.5 13.023438 L 9.9765625 13.023438 L 9.9765625 13.40625 L 9.9980469 13.199219 C 9.8551936 13.891865 10.20014 14.493858 10.712891 14.808594 C 11.055314 15.01878 11.557509 15.041556 12 14.894531 L 12 6.0996094 C 11.890409 6.0636288 11.781844 6.0230682 11.667969 6.0097656 z "
   id="path872" />
<path
   inkscape:connector-curvature="0"
   d="m 14.999969,10.484345 c -0.0025,-0.155822 -0.07769,-0.302014 -0.203125,-0.394532 L 11.847626,7.1464539 c -0.380073,-0.3792086 -0.900869,0.00585 -0.847657,0.4160156 v 1.4375 L 8.5,9 c -0.277,3.4e-6 -0.4999995,0.2795294 -0.4999995,0.6269531 v 0.8749999 0.871093 C 8.0000005,11.72047 8.223001,12.000004 8.5,12 l 2.499969,-3e-5 v 1.406249 c -0.08755,0.4245 0.462775,0.844351 0.84961,0.439453 l 2.955078,-2.957031 c 0.125237,-0.09621 0.197771,-0.246412 0.195312,-0.404296 z"
   id="path6"
   style="fill:url(#linearGradient2182);fill-opacity:1"
   sodipodi:nodetypes="cccccsscssccccc" />
</svg>
